public/cards/0_red.svg

<svg width="242" height="362" viewBox="0 0 242 362" fill="none" xmlns="http://www.w3.org/2000/svg">
<path d="M201 1H41C18.9086 1 1 18.9086 1 41V321C1 343.091 18.9086 361 41 361H201C223.091 361 241 343.091 241 321V41C241 18.9086 223.091 1 201 1Z" fill="white" stroke="black" stroke-width="2"/>
<path d="M201 21H41C29.9543 21 21 29.9543 21 41V321C21 332.046 29.9543 341 41 341H201C212.046 341 221 332.046 221 321V41C221 29.9543 212.046 21 201 21Z" fill="#E80000"/>
<path fill-rule="evenodd" clip-rule="evenodd" d="M181 80.9999C92.6344 80.9999 21 152.634 21 241C21 263.091 38.9086 281 61 281C149.366 281 221 209.365 221 121C221 98.9085 203.091 80.9999 181 80.9999Z" fill="white"/>
<path fill-rule="evenodd" clip-rule="evenodd" d="M121 121C98.9086 121 81 138.909 81 161V201C81 223.091 98.9086 241 121 241C143.091 241 161 223.091 161 201V161C161 138.909 143.091 121 121 121ZM121 141C132.046 141 141 149.954 141 161V201C141 212.046 132.046 221 121 221C109.954 221 101 212.046 101 201V161C101 149.954 109.954 141 121 141Z" fill="#E80000"/>
<path fill-rule="evenodd" clip-rule="evenodd" d="M51 31C39.9543 31 31 39.9543 31 51V71C31 82.0457 39.9543 91 51 91C62.0457 91 71 82.0457 71 71V51C71 39.9543 62.0457 31 51 31ZM51 41C56.5228 41 61 45.4772 61 51V71C61 76.5228 56.5228 81 51 81C45.4772 81 41 76.5228 41 71V51C41 45.4772 45.4772 41 51 41Z" fill="white"/>
<path fill-rule="evenodd" clip-rule="evenodd" d="M191 271C179.954 271 171 279.954 171 291V311C171 322.046 179.954 331 191 331C202.046 331 211 322.046 211 311V291C211 279.954 202.046 271 191 271ZM191 281C196.523 281 201 285.477 201 291V311C201 316.523 196.523 321 191 321C185.477 321 181 316.523 181 311V291C181 285.477 185.477 281 191 281Z" fill="white"/>
</svg>

<svg xmlns="http://www.w3.org/2000/svg" width="242" height="362" fill="none"><path fill="#fff" stroke="#000" stroke-width="2" d="M201 1H41C18.909 1 1 18.909 1 41v280c0 22.091 17.909 40 40 40h160c22.091 0 40-17.909 40-40V41c0-22.091-17.909-40-40-40z"/><path fill="#E80000" d="M201 21H41c-11.046 0-20 8.954-20 20v280c0 11.046 8.954 20 20 20h160c11.046 0 20-8.954 20-20V41c0-11.046-8.954-20-20-20z"/><path fill="#fff" fill-rule="evenodd" d="M181 81C92.634 81 21 152.634 21 241c0 22.091 17.909 40 40 40 88.366 0 160-71.635 160-160 0-22.091-17.909-40-40-40z" clip-rule="evenodd"/><path fill="#E80000" fill-rule="evenodd" d="M121 121c-22.091 0-40 17.909-40 40v40c0 22.091 17.909 40 40 40s40-17.909 40-40v-40c0-22.091-17.909-40-40-40zm0 20c11.046 0 20 8.954 20 20v40c0 11.046-8.954 20-20 20s-20-8.954-20-20v-40c0-11.046 8.954-20 20-20z" clip-rule="evenodd"/><path fill="#fff" fill-rule="evenodd" d="M51 31c-11.046 0-20 8.954-20 20v20c0 11.046 8.954 20 20 20s20-8.954 20-20V51c0-11.046-8.954-20-20-20zm0 10c5.523 0 10 4.477 10 10v20c0 5.523-4.477 10-10 10s-10-4.477-10-10V51c0-5.523 4.477-10 10-10zm140 230c-11.046 0-20 8.954-20 20v20c0 11.046 8.954 20 20 20s20-8.954 20-20v-20c0-11.046-8.954-20-20-20zm0 10c5.523 0 10 4.477 10 10v20c0 5.523-4.477 10-10 10s-10-4.477-10-10v-20c0-5.523 4.477-10 10-10z" clip-rule="evenodd"/></svg>
